X:1
T:Nicky's Archive
D:O hAllmhurain and Orceau, Tracin'
N:Orceau learned it from Kerry fiddler Nicky McAuliffe
Z:Michael Reid <mwreid@concentric.net> irtrad-l 2000-09-03
M:C|
L:1/8
R:Barndance
K:D
B|:~A2F2A3B|~A2G2GFEd|~c2E2c2cB|A2de fedB|
~A2F2A3B|~A2G2GFEd|~c2E2c2cB|AGFE DEFG:|
|:A2f2f3c|e2d2 dcBA|B2g2g3f|edfd AGFG|
A2f2f3c|e2d2 dcBd|c2E2c2cB|[1 AGFE DEFG:|[2 A2de fed|]
